X:2
T:Aires de Pontevedra (as played by Gary West)
S:http://www.youtube.com/watch?v=-0QorXZGGmw
N:Played on Scottish Smallpipes in D, notated in A
N:Further variations played second time round but not transcribed here
Z:Peter Duggan
M:C|
L:1/8
K:Hp
e2|a2e2 c2de|fedc B3c|dcde fedB|edBG A2e2|
a2e2 c2de|fedc B2Bc|dcde fedB|edBG A2e2|
a2e2 c2de|fedc B2Bc|dcde fedB|edBG A2e2|
aecA cefe|decd BBBc|dcde fedB|\
M:3/2
edBG A4- AABc|
M:C|
dcdB cABc|dcdB cABc|ecdB cABc|cddB cAce|
fg3 gfge|agfe dcde|AddA dAde|agfe dcde|
AccA cAce|agfe dcde|B4 cecA|cecA BdBG|
B2e2 A4-|\
M:3/2
A8- AABc|\
M:C|
dcdB cABc|dcdB cABc|
dAdA cAcA|dAdA cAce|fg3 gfge|agfe dcde|
AddA dAde|agfe dcde|AccA cAce|agfe dcde|
B4 cecA|cecA BdBG|B2e2 A4-|\
M:3/2
A8- A2||
